; generated by Slic3r 1.3.0 on 2018-11-19 at 14:40:27

; external perimeters extrusion width = 0.55mm (5.57mm^3/s)
; perimeters extrusion width = 0.58mm (11.78mm^3/s)
; infill extrusion width = 0.58mm (15.71mm^3/s)
; solid infill extrusion width = 0.58mm (3.93mm^3/s)
; top infill extrusion width = 0.58mm (2.95mm^3/s)

M107
M104 S205 ; set temperature
G28 ; home all axes
G1 Z5 F5000 ; lift nozzle

; Filament gcode

M109 S205 ; set temperature and wait for it to be reached
G21 ; set units to millimeters
G90 ; use absolute coordinates
M82 ; use absolute distances for extrusion
G92 E0
G1 Z0.500 F7800.000
G1 E-2.00000 F2400.00000
G92 E0
G1 X71.712 Y72.581 F7800.000
G1 E2.00000 F2400.00000
G1 F1800
G1 X74.382 Y70.064 E2.23169
G1 X74.834 Y69.689 E2.26876
G1 X77.741 Y67.489 E2.49901
G1 X78.250 Y67.152 E2.53752
G1 X81.358 Y65.289 E2.76633
G1 X81.919 Y64.998 E2.80628
G1 X84.883 Y63.627 E3.01244
G1 X85.800 Y63.252 E3.07503
G1 X89.192 Y62.113 E3.30096
G1 X89.846 Y61.935 E3.34378
G1 X93.319 Y61.173 E3.56829
G1 X94.011 Y61.061 E3.61254
G1 X97.523 Y60.681 E3.83560
G1 X98.245 Y60.643 E3.88130
G1 X101.755 Y60.643 E4.10292
G1 X102.477 Y60.681 E4.14862
G1 X105.989 Y61.061 E4.37168
G1 X106.681 Y61.173 E4.41593
G1 X110.154 Y61.935 E4.64044
G1 X110.808 Y62.113 E4.68325
G1 X114.200 Y63.252 E4.90919
G1 X114.811 Y63.490 E4.95058
G1 X118.081 Y64.998 E5.17795
G1 X118.642 Y65.289 E5.21790
G1 X121.750 Y67.152 E5.44671
G1 X122.259 Y67.489 E5.48522
G1 X125.166 Y69.689 E5.71547
G1 X125.618 Y70.064 E5.75255
G1 X128.288 Y72.581 E5.98423
G1 X129.026 Y73.373 E6.05257
G1 X131.081 Y75.792 E6.25298
G1 X131.590 Y76.460 E6.30605
G1 X133.562 Y79.368 E6.52794
G1 X133.806 Y79.755 E6.55681
G1 X135.596 Y83.117 E6.79733
G1 X135.911 Y83.800 E6.84481
G1 X137.314 Y87.337 E7.08511
G1 X137.452 Y87.777 E7.11420
G1 X138.446 Y91.368 E7.34951
G1 X138.554 Y91.897 E7.38359
G1 X139.142 Y95.491 E7.61355
G1 X139.204 Y96.112 E7.65297
G1 X139.397 Y99.669 E7.87789
G1 X139.394 Y100.379 E7.92271
G1 X139.204 Y103.888 E8.14460
G1 X139.142 Y104.508 E8.18394
G1 X138.554 Y108.103 E8.41399
G1 X138.392 Y108.837 E8.46147
G1 X137.452 Y112.223 E8.68336
G1 X137.212 Y112.936 E8.73084
G1 X135.762 Y116.548 E8.97662
G1 X133.807 Y120.243 E9.24063
G1 X133.562 Y120.632 E9.26961
G1 X131.590 Y123.540 E9.49150
G1 X131.309 Y123.925 E9.52158
G1 X128.682 Y127.015 E9.77770
G1 X128.288 Y127.419 E9.81334
G1 X125.618 Y129.936 E10.04502
G1 X125.166 Y130.311 E10.08210
G1 X122.259 Y132.511 E10.31234
G1 X121.750 Y132.848 E10.35086
G1 X118.642 Y134.711 E10.57967
G1 X118.081 Y135.002 E10.61961
G1 X115.200 Y136.335 E10.82003
G1 X114.811 Y136.510 E10.84699
G1 X114.200 Y136.748 E10.88838
G1 X110.808 Y137.887 E11.11431
G1 X110.154 Y138.065 E11.15713
G1 X106.681 Y138.827 E11.38164
G1 X105.989 Y138.939 E11.42589
G1 X102.477 Y139.319 E11.64896
G1 X101.755 Y139.357 E11.69465
G1 X98.245 Y139.357 E11.91627
G1 X97.523 Y139.319 E11.96196
G1 X94.011 Y138.939 E12.18503
G1 X93.319 Y138.827 E12.22928
G1 X89.846 Y138.065 E12.45379
G1 X89.192 Y137.887 E12.49661
G1 X85.800 Y136.748 E12.72254
G1 X85.189 Y136.510 E12.76393
G1 X81.919 Y135.002 E12.99131
G1 X81.358 Y134.711 E13.03125
G1 X78.250 Y132.848 E13.26006
G1 X77.741 Y132.511 E13.29858
G1 X74.834 Y130.311 E13.52882
G1 X74.382 Y129.936 E13.56590
G1 X71.712 Y127.419 E13.79758
G1 X70.974 Y126.627 E13.86592
G1 X68.919 Y124.208 E14.06633
G1 X68.410 Y123.540 E14.11940
G1 X66.438 Y120.632 E14.34129
G1 X66.194 Y120.245 E14.37014
G1 X64.404 Y116.883 E14.61068
G1 X64.089 Y116.200 E14.65816
G1 X62.685 Y112.660 E14.89866
G1 X62.548 Y112.223 E14.92755
G1 X61.554 Y108.631 E15.16288
G1 X61.446 Y108.103 E15.19694
G1 X60.857 Y104.506 E15.42709
G1 X60.796 Y103.888 E15.46632
G1 X60.603 Y100.331 E15.69123
G1 X60.606 Y99.621 E15.73606
G1 X60.796 Y96.112 E15.95795
G1 X60.858 Y95.494 E15.99721
G1 X61.446 Y91.897 E16.22734
G1 X61.554 Y91.370 E16.26133
G1 X62.548 Y87.777 E16.49673
G1 X62.685 Y87.340 E16.52562
G1 X64.089 Y83.800 E16.76611
G1 X64.404 Y83.117 E16.81360
G1 X66.195 Y79.753 E17.05425
G1 X66.438 Y79.368 E17.08298
G1 X68.410 Y76.460 E17.30488
G1 X68.919 Y75.792 E17.35794
G1 X70.974 Y73.373 E17.55836
G1 X71.659 Y72.634 E17.62196
G1 E15.62196 F2400.00000
G92 E0
G1 X125.820 Y113.200 F7800.000
G1 E2.00000 F2400.00000
G1 F1800
G1 X74.180 Y113.200 E5.26084
G1 X74.180 Y101.400 E6.00596
G1 X72.850 Y101.400 E6.08992
G1 X72.850 Y98.600 E6.26672
G1 X74.180 Y98.600 E6.35069
G1 X74.180 Y86.800 E7.09581
G1 X125.820 Y86.800 E10.35664
G1 X125.820 Y98.600 E11.10177
G1 X127.150 Y98.600 E11.18573
G1 X127.150 Y101.400 E11.36253
G1 X125.820 Y101.400 E11.44649
G1 X125.820 Y113.125 E12.18688
G1 X125.801 Y113.700 F7800.000
G1 E10.18688 F2400.00000
G92 E0
G1 X73.195 Y97.960 F7800.000
G1 E2.00000 F2400.00000
G1 F1800
G1 X69.655 Y97.960 E2.22354
G1 X69.655 Y94.420 E2.44707
G1 X73.195 Y94.420 E2.67061
G1 X73.195 Y97.885 E2.88940
G1 X73.324 Y98.443 F7800.000
G1 E0.88940 F2400.00000
G92 E0
G1 X73.787 Y114.985 F7800.000
G1 E2.00000 F2400.00000
G1 F1800
G1 X126.213 Y114.985 E5.31048
G1 X125.899 Y115.579 E5.35289
G1 X124.059 Y118.293 E5.55994
G1 X121.910 Y120.819 E5.76932
G1 X119.517 Y123.076 E5.97707
G1 X116.916 Y125.045 E6.18309
G1 X114.118 Y126.723 E6.38911
G1 X111.154 Y128.090 E6.59520
G1 X108.273 Y129.060 E6.78717
G1 X108.072 Y129.126 E6.80051
G1 X104.875 Y129.827 E7.00718
G1 X101.631 Y130.179 E7.21321
G1 X98.369 Y130.179 E7.41923
G1 X95.125 Y129.827 E7.62525
G1 X91.938 Y129.128 E7.83128
G1 X88.845 Y128.089 E8.03730
G1 X85.882 Y126.723 E8.24332
G1 X83.084 Y125.045 E8.44934
G1 X80.483 Y123.076 E8.65536
G1 X78.090 Y120.819 E8.86311
G1 X75.941 Y118.293 E9.07250
G1 X74.104 Y115.583 E9.27921
G1 X73.822 Y115.052 E9.31721
G1 E7.31721 F2400.00000
G92 E0
G1 X127.605 Y111.075 F7800.000
G1 E2.00000 F2400.00000
G1 F1800
G1 X127.605 Y107.365 E2.23427
G1 X129.276 Y107.365 E2.33973
G1 X128.642 Y109.648 E2.48935
G1 X128.040 Y111.159 E2.59200
G1 X127.679 Y111.090 E2.61522
G1 E0.61522 F2400.00000
G92 E0
G1 X71.065 Y103.185 F7800.000
G1 E2.00000 F2400.00000
G1 F1800
G1 X72.395 Y103.185 E2.08396
G1 X72.395 Y111.075 E2.58216
G1 X71.960 Y111.158 E2.61011
G1 X71.358 Y109.648 E2.71276
G1 X70.483 Y106.496 E2.91935
G1 X69.954 Y103.267 E3.12596
G1 X69.763 Y99.745 E3.34866
G1 X71.065 Y99.745 E3.43087
G1 X71.065 Y103.110 E3.64335
G1 X71.958 Y102.293 F7800.000
G1 F1800
G1 X73.287 Y102.293 E3.72732
G1 X73.287 Y114.093 E4.47244
G1 X126.713 Y114.093 E7.84602
G1 X126.713 Y106.473 E8.32719
G1 X130.450 Y106.473 E8.56316
G1 X129.489 Y109.934 E8.78999
G1 X128.242 Y113.063 E9.00270
G1 X126.665 Y116.040 E9.21541
G1 X124.771 Y118.833 E9.42855
G1 X122.722 Y121.250 E9.62858
G1 X122.550 Y121.442 E9.64489
G1 X120.094 Y123.758 E9.85805
G1 X117.416 Y125.786 E10.07017
G1 X114.535 Y127.514 E10.28228
G1 X111.484 Y128.920 E10.49444
G1 X108.554 Y129.908 E10.68971
G1 X108.306 Y129.988 E10.70612
G1 X105.019 Y130.710 E10.91864
G1 X101.680 Y131.072 E11.13075
G1 X98.320 Y131.072 E11.34287
G1 X94.981 Y130.710 E11.55499
G1 X91.700 Y129.990 E11.76711
G1 X88.515 Y128.920 E11.97923
G1 X85.465 Y127.514 E12.19134
G1 X82.584 Y125.786 E12.40346
G1 X79.906 Y123.758 E12.61557
G1 X77.450 Y121.442 E12.82874
G1 X75.229 Y118.833 E13.04507
G1 X73.338 Y116.044 E13.25786
G1 X71.760 Y113.068 E13.47058
G1 X70.511 Y109.934 E13.68364
G1 X69.610 Y106.688 E13.89635
G1 X69.065 Y103.364 E14.10906
G1 X68.883 Y100.000 E14.32178
G1 X68.945 Y98.853 E14.39433
G1 X71.958 Y98.853 E14.58456
G1 X71.958 Y102.218 E14.79704
G1 E12.79704 F2400.00000
G92 E0
G1 X128.935 Y96.815 F7800.000
G1 E2.00000 F2400.00000
G1 F1800
G1 X127.605 Y96.815 E2.08396
G1 X127.605 Y88.925 E2.58219
G1 X128.040 Y88.841 E2.61014
G1 X128.642 Y90.352 E2.71280
G1 X129.517 Y93.504 E2.91940
G1 X130.046 Y96.733 E3.12600
G1 X130.237 Y100.255 E3.34870
G1 X128.935 Y100.255 E3.43092
G1 X128.935 Y96.890 E3.64340
G1 E1.64340 F2400.00000
G92 E0
G1 X126.213 Y85.015 F7800.000
G1 E2.00000 F2400.00000
G1 F1800
G1 X73.787 Y85.015 E5.31049
G1 X74.101 Y84.421 E5.35290
G1 X75.941 Y81.707 E5.55995
G1 X78.090 Y79.181 E5.76933
G1 X80.483 Y76.924 E5.97708
G1 X83.084 Y74.955 E6.18310
G1 X85.882 Y73.277 E6.38912
G1 X88.846 Y71.910 E6.59521
G1 X91.727 Y70.940 E6.78718
G1 X91.928 Y70.874 E6.80052
G1 X95.125 Y70.172 E7.00721
G1 X98.365 Y69.821 E7.21300
G1 X101.635 Y69.821 E7.41946
G1 X104.875 Y70.172 E7.62524
G1 X108.062 Y70.872 E7.83129
G1 X111.155 Y71.911 E8.03731
G1 X114.118 Y73.277 E8.24333
G1 X116.916 Y74.955 E8.44935
G1 X119.517 Y76.924 E8.65537
G1 X121.890 Y79.163 E8.86139
G1 X124.008 Y81.643 E9.06732
G1 X125.900 Y84.423 E9.27965
G1 X126.178 Y84.948 E9.31721
G1 E7.31721 F2400.00000
G92 E0
G1 X72.395 Y88.925 F7800.000
G1 E2.00000 F2400.00000
G1 F1800
G1 X72.395 Y92.635 E2.23427
G1 X70.724 Y92.635 E2.33973
G1 X71.358 Y90.352 E2.48935
G1 X71.960 Y88.841 E2.59201
G1 X72.321 Y88.910 E2.61522
G1 E0.61522 F2400.00000
G92 E0
G1 X73.287 Y85.907 F7800.000
G1 E2.00000 F2400.00000
G1 F1800
G1 X73.287 Y93.527 E2.48117
G1 X69.550 Y93.527 E2.71715
G1 X70.511 Y90.066 E2.94397
G1 X71.758 Y86.937 E3.15669
G1 X73.335 Y83.960 E3.36940
G1 X75.229 Y81.167 E3.58253
G1 X77.450 Y78.558 E3.79886
G1 X79.906 Y76.242 E4.01203
G1 X82.584 Y74.214 E4.22415
G1 X85.465 Y72.486 E4.43626
G1 X88.516 Y71.080 E4.64842
G1 X91.694 Y70.012 E4.86010
G1 X94.981 Y69.290 E5.07263
G1 X98.318 Y68.928 E5.28460
G1 X101.682 Y68.928 E5.49698
G1 X105.019 Y69.290 E5.70896
G1 X108.300 Y70.010 E5.92109
G1 X111.485 Y71.080 E6.13321
G1 X114.535 Y72.486 E6.34532
G1 X117.416 Y74.214 E6.55744
G1 X120.094 Y76.242 E6.76955
G1 X122.538 Y78.546 E6.98167
G1 X124.719 Y81.100 E7.19372
G1 X126.665 Y83.961 E7.41224
G1 X128.242 Y86.937 E7.62488
G1 X129.489 Y90.066 E7.83760
G1 X130.390 Y93.312 E8.05031
G1 X130.935 Y96.636 E8.26302
G1 X131.117 Y100.000 E8.47574
G1 X131.055 Y101.147 E8.54829
G1 X128.042 Y101.147 E8.73853
G1 X128.042 Y97.707 E8.95575
G1 X126.713 Y97.707 E9.03971
G1 X126.713 Y85.907 E9.78483
G1 X73.362 Y85.907 E13.15367
G1 E11.15367 F2400.00000
G92 E0
G1 X126.805 Y102.040 F7800.000
G1 E2.00000 F2400.00000
G1 F1800
G1 X130.345 Y102.040 E2.22354
G1 X130.345 Y105.580 E2.44707
G1 X126.805 Y105.580 E2.67061
G1 X126.805 Y102.115 E2.88940
G1 X126.676 Y101.557 F7800.000
G1 E0.88940 F2400.00000
G92 E0
G1 X131.886 Y102.315 F7800.000
G1 E2.00000 F2400.00000
G1 F1800
G1 X131.824 Y103.460 E2.07240
G1 X131.263 Y106.880 E2.29123
G1 X130.336 Y110.219 E2.51005
G1 X129.054 Y113.439 E2.72888
G1 X127.431 Y116.501 E2.94770
G1 X125.483 Y119.374 E3.16693
G1 X123.190 Y122.066 E3.39021
G1 X120.672 Y124.441 E3.60879
G1 X117.917 Y126.527 E3.82700
G1 X114.953 Y128.304 E4.04521
G1 X111.814 Y129.751 E4.26344
G1 X108.834 Y130.755 E4.46200
G1 X108.541 Y130.851 E4.48149
G1 X105.163 Y131.592 E4.69985
G1 X101.728 Y131.965 E4.91806
G1 X98.272 Y131.965 E5.13627
G1 X94.837 Y131.592 E5.35449
G1 X91.461 Y130.851 E5.57270
G1 X88.185 Y129.751 E5.79091
G1 X85.047 Y128.304 E6.00912
G1 X82.083 Y126.527 E6.22733
G1 X79.328 Y124.441 E6.44554
G1 X76.810 Y122.066 E6.66413
G1 X76.604 Y121.837 E6.68358
G1 X74.517 Y119.374 E6.88742
G1 X72.572 Y116.505 E7.10629
G1 X70.949 Y113.444 E7.32511
G1 X69.664 Y110.219 E7.54429
G1 X68.737 Y106.880 E7.76311
G1 X68.176 Y103.460 E7.98194
G1 X67.989 Y100.000 E8.20076
G1 X68.176 Y96.540 E8.41959
G1 X68.737 Y93.120 E8.63841
G1 X69.664 Y89.781 E8.85724
G1 X70.946 Y86.561 E9.07607
G1 X72.569 Y83.499 E9.29489
G1 X74.517 Y80.626 E9.51411
G1 X76.604 Y78.163 E9.71795
G1 X76.810 Y77.934 E9.73740
G1 X79.328 Y75.559 E9.95598
G1 X82.083 Y73.473 E10.17419
G1 X85.047 Y71.696 E10.39240
G1 X88.186 Y70.249 E10.61063
G1 X91.166 Y69.245 E10.80920
G1 X91.459 Y69.149 E10.82869
G1 X94.837 Y68.408 E11.04705
G1 X98.271 Y68.035 E11.26521
G1 X101.729 Y68.035 E11.48351
G1 X105.163 Y68.408 E11.70168
G1 X108.539 Y69.149 E11.91989
G1 X111.815 Y70.249 E12.13810
G1 X114.953 Y71.696 E12.35632
G1 X117.917 Y73.473 E12.57453
G1 X120.672 Y75.559 E12.79274
G1 X123.186 Y77.930 E13.01094
G1 X125.429 Y80.558 E13.22913
G1 X127.431 Y83.500 E13.45384
G1 X129.054 Y86.561 E13.67264
G1 X130.336 Y89.781 E13.89146
G1 X131.263 Y93.120 E14.11029
G1 X131.824 Y96.540 E14.32911
G1 X132.011 Y100.000 E14.54794
G1 X131.890 Y102.241 E14.68963
G1 X131.445 Y102.551 F7800.000
G1 E12.68963 F2400.00000
G92 E0
G1 X123.630 Y100.399 F7800.000
G1 E2.00000 F2400.00000
G1 F1800
G1 X76.370 Y100.399 E4.98426
G1 X76.370 Y99.599 E5.03476
G1 X123.630 Y99.599 E8.01902
G1 X123.630 Y100.324 E8.06479
G1 X123.130 Y100.396 F7800.000
G1 E6.06479 F2400.00000
G92 E0
G1 X128.661 Y96.269 F7800.000
G1 E2.00000 F2400.00000
G1 F1800
G1 X129.356 Y95.575 E2.07442
G1 X129.142 Y94.273 E2.17437
G1 X128.151 Y95.265 E2.28062
G1 X128.151 Y93.750 E2.39542
G1 X128.895 Y93.005 E2.47521
G1 E0.47521 F2400.00000
G92 E0
G1 X124.268 Y84.469 F7800.000
G1 E2.00000 F2400.00000
G1 F1800
G1 X124.962 Y83.775 E2.06323
G1 X124.441 Y83.009 E2.12288
G1 X122.981 Y84.469 E2.25586
G1 X121.693 Y84.469 E2.33874
G1 X123.920 Y82.243 E2.54147
G1 X123.645 Y81.838 E2.57297
G1 X123.365 Y81.510 E2.60071
G1 X120.406 Y84.469 E2.87011
G1 X119.119 Y84.469 E2.95299
G1 X122.772 Y80.816 E3.28562
G1 X122.179 Y80.122 E3.34440
G1 X117.832 Y84.469 E3.74025
G1 X116.544 Y84.469 E3.82313
G1 X121.586 Y79.428 E4.28216
G1 X120.923 Y78.803 E4.34079
G1 X115.257 Y84.469 E4.85671
G1 X113.970 Y84.469 E4.93959
G1 X120.261 Y78.178 E5.51240
G1 X119.598 Y77.553 E5.57102
G1 X112.683 Y84.469 E6.20072
G1 X111.395 Y84.469 E6.28359
G1 X118.899 Y76.966 E6.96679
G1 X118.166 Y76.411 E7.02595
G1 X110.108 Y84.469 E7.75965
G1 X108.821 Y84.469 E7.84253
G1 X117.434 Y75.856 E8.62674
G1 X116.695 Y75.308 E8.68598
G1 X107.534 Y84.469 E9.52014
G1 X106.247 Y84.469 E9.60302
G1 X115.890 Y74.825 E10.48111
G1 X115.086 Y74.343 E10.54152
G1 X104.959 Y84.469 E11.46354
G1 X103.672 Y84.469 E11.54642
G1 X114.281 Y73.860 E12.51237
G1 X114.047 Y73.720 E12.52993
G1 X113.422 Y73.432 E12.57424
G1 X102.385 Y84.469 E13.57920
G1 X101.098 Y84.469 E13.66208
G1 X112.541 Y73.026 E14.70402
G1 X111.660 Y72.620 E14.76649
G1 X99.810 Y84.469 E15.84542
G1 X98.523 Y84.469 E15.92830
G1 X110.742 Y72.250 E17.04087
G1 X109.779 Y71.926 E17.10632
G1 X97.236 Y84.469 E18.24836
G1 X95.949 Y84.469 E18.33124
G1 X108.815 Y71.603 E19.50275
G1 X108.171 Y71.386 E19.54652
G1 X107.821 Y71.310 E19.56956
G1 X94.662 Y84.469 E20.76777
G1 X93.374 Y84.469 E20.85064
G1 X106.765 Y71.078 E22.06994
G1 X105.710 Y70.846 E22.13952
G1 X92.087 Y84.469 E23.37992
G1 X90.800 Y84.469 E23.46279
G1 X104.612 Y70.657 E24.72043
G1 X103.451 Y70.531 E24.79562
G1 X89.513 Y84.469 E26.06475
G1 X88.225 Y84.469 E26.14763
G1 X102.290 Y70.404 E27.42826
G1 X101.935 Y70.366 E27.45125
G1 X101.041 Y70.366 E27.50881
G1 X86.938 Y84.469 E28.79291
G1 X85.651 Y84.469 E28.87579
G1 X99.754 Y70.366 E30.15988
G1 X98.761 Y70.366 E30.22382
G1 X98.431 Y70.402 E30.24519
G1 X84.364 Y84.469 E31.52603
G1 X83.077 Y84.469 E31.60890
G1 X96.987 Y70.559 E32.87547
G1 X95.532 Y70.726 E32.96973
G1 X81.789 Y84.469 E34.22107
G1 X80.502 Y84.469 E34.30395
G1 X93.883 Y71.088 E35.52233
G1 X92.510 Y71.389 E35.61285
G1 X92.188 Y71.496 E35.63471
G1 X79.215 Y84.469 E36.81592
G1 X77.928 Y84.469 E36.89880
G1 X90.246 Y72.150 E38.02046
G1 X89.524 Y72.394 E38.06955
G1 X88.024 Y73.085 E38.17587
G1 X76.640 Y84.469 E39.21240
G1 X75.353 Y84.469 E39.29527
G1 X85.286 Y74.536 E40.19967
G1 X83.932 Y75.348 E40.30132
G1 X81.408 Y77.259 E40.50516
G1 X79.088 Y79.447 E40.71046
G1 X78.393 Y80.142 E40.77369
G1 E38.77369 F2400.00000
G92 E0
G1 X71.570 Y103.731 F7800.000
G1 E2.00000 F2400.00000
G1 F1800
G1 X70.677 Y104.624 E2.09569
G1 X70.890 Y105.925 E2.19564
G1 X71.849 Y104.966 E2.29841
G1 X71.849 Y106.481 E2.41320
G1 X71.155 Y107.176 E2.48761
G1 E0.48761 F2400.00000
G92 E0
G1 X75.730 Y115.531 F7800.000
G1 E2.00000 F2400.00000
G1 F1800
G1 X75.035 Y116.225 E2.06324
G1 X75.556 Y116.992 E2.12291
G1 X77.017 Y115.531 E2.25600
G1 X78.304 Y115.531 E2.33888
G1 X76.076 Y117.760 E2.54182
G1 X76.306 Y118.099 E2.56820
G1 X76.636 Y118.487 E2.60101
G1 X79.592 Y115.531 E2.87017
G1 X80.879 Y115.531 E2.95305
G1 X77.227 Y119.182 E3.28555
G1 X77.819 Y119.878 E3.34435
G1 X82.166 Y115.531 E3.74019
G1 X83.454 Y115.531 E3.82308
G1 X78.413 Y120.571 E4.28204
G1 X79.076 Y121.196 E4.34068
G1 X84.741 Y115.531 E4.85653
