; generated by Slic3r 1.3.0 on 2018-11-17 at 13:03:36

; external perimeters extrusion width = 0.55mm (5.57mm^3/s)
; perimeters extrusion width = 0.58mm (11.78mm^3/s)
; infill extrusion width = 0.58mm (15.71mm^3/s)
; solid infill extrusion width = 0.58mm (3.93mm^3/s)
; top infill extrusion width = 0.58mm (2.95mm^3/s)

M107
M104 S205 ; set temperature
G28 ; home all axes
G1 Z5 F5000 ; lift nozzle

; Filament gcode

M109 S205 ; set temperature and wait for it to be reached
G21 ; set units to millimeters
G90 ; use absolute coordinates
M82 ; use absolute distances for extrusion
G92 E0
G1 Z0.500 F7800.000
G1 E-2.00000 F2400.00000
G92 E0
G1 X63.621 Y78.060 F7800.000
G1 E2.00000 F2400.00000
G1 F1800
G1 X65.753 Y77.096 E2.14774
G1 X67.488 Y76.874 E2.25820
G1 X132.512 Y76.874 E6.36417
G1 X134.818 Y77.271 E6.51191
G1 X136.858 Y78.416 E6.65965
G1 X138.397 Y80.178 E6.80739
G1 X139.258 Y82.354 E6.95514
G1 X139.397 Y84.097 E7.06559
G1 X139.204 Y87.654 E7.29050
G1 X139.142 Y88.276 E7.33000
G1 X138.554 Y91.869 E7.55989
G1 X138.446 Y92.399 E7.59404
G1 X137.452 Y95.990 E7.82927
G1 X137.314 Y96.430 E7.85841
G1 X135.763 Y100.310 E8.12228
G1 X133.950 Y103.754 E8.36804
G1 X133.562 Y104.398 E8.41552
G1 X131.457 Y107.496 E8.65207
G1 X131.081 Y107.975 E8.69049
G1 X129.026 Y110.394 E8.89091
G1 X128.288 Y111.186 E8.95924
G1 X125.984 Y113.368 E9.15966
G1 X125.166 Y114.077 E9.22799
G1 X122.259 Y116.277 E9.45824
G1 X121.750 Y116.614 E9.49675
G1 X118.642 Y118.477 E9.72556
G1 X118.081 Y118.769 E9.76551
G1 X114.811 Y120.276 E9.99288
G1 X114.200 Y120.515 E10.03427
G1 X110.808 Y121.654 E10.26021
G1 X110.154 Y121.832 E10.30303
G1 X106.681 Y122.594 E10.52753
G1 X105.989 Y122.705 E10.57178
G1 X102.478 Y123.086 E10.79484
G1 X101.755 Y123.124 E10.84054
G1 X98.245 Y123.124 E11.06217
G1 X97.522 Y123.086 E11.10786
G1 X94.011 Y122.705 E11.33092
G1 X93.319 Y122.594 E11.37517
G1 X89.846 Y121.832 E11.59968
G1 X89.192 Y121.654 E11.64250
G1 X85.800 Y120.515 E11.86844
G1 X84.883 Y120.139 E11.93102
G1 X81.919 Y118.769 E12.13718
G1 X81.358 Y118.477 E12.17713
G1 X80.969 Y118.251 E12.20553
G1 X78.250 Y116.614 E12.40594
G1 X77.741 Y116.277 E12.44445
G1 X74.834 Y114.077 E12.67470
G1 X74.382 Y113.702 E12.71178
G1 X71.712 Y111.186 E12.94346
G1 X71.318 Y110.781 E12.97910
G1 X68.919 Y107.975 E13.21222
G1 X68.410 Y107.306 E13.26529
G1 X66.438 Y104.398 E13.48718
G1 X66.195 Y104.013 E13.51594
G1 X64.236 Y100.310 E13.78046
G1 X62.684 Y96.425 E14.04465
G1 X62.548 Y95.990 E14.07344
G1 X61.608 Y92.604 E14.29534
G1 X61.446 Y91.869 E14.34282
G1 X60.858 Y88.277 E14.57264
G1 X60.796 Y87.654 E14.61220
G1 X60.603 Y84.097 E14.83711
G1 X60.889 Y81.775 E14.98485
G1 X61.935 Y79.683 E15.13259
G1 X63.567 Y78.112 E15.27560
G1 E13.27560 F2400.00000
G92 E0
G1 X130.345 Y89.346 F7800.000
G1 E2.00000 F2400.00000
G1 F1800
G1 X126.805 Y89.346 E2.22354
G1 X126.805 Y85.806 E2.44707
G1 X130.345 Y85.806 E2.67061
G1 X130.345 Y89.271 E2.88941
G1 X130.474 Y89.829 F7800.000
G1 E0.88941 F2400.00000
G92 E0
G1 X126.213 Y98.752 F7800.000
G1 E2.00000 F2400.00000
G1 F1800
G1 X125.896 Y99.350 E2.04275
G1 X124.064 Y102.052 E2.24889
G1 X121.889 Y104.605 E2.46064
G1 X119.517 Y106.842 E2.66657
G1 X116.916 Y108.812 E2.87259
G1 X114.116 Y110.490 E3.07870
G1 X111.360 Y111.765 E3.27045
G1 X111.168 Y111.851 E3.28378
G1 X108.062 Y112.895 E3.49066
G1 X104.875 Y113.594 E3.69669
G1 X101.631 Y113.946 E3.90271
G1 X98.369 Y113.946 E4.10873
G1 X95.125 Y113.594 E4.31476
G1 X91.938 Y112.895 E4.52078
G1 X88.845 Y111.856 E4.72680
G1 X85.882 Y110.489 E4.93282
G1 X83.084 Y108.812 E5.13884
G1 X80.483 Y106.842 E5.34486
G1 X78.111 Y104.605 E5.55080
G1 X75.936 Y102.052 E5.76254
G1 X74.104 Y99.350 E5.96869
G1 X73.787 Y98.752 E6.01144
G1 X126.138 Y98.752 E9.31717
G1 E7.31717 F2400.00000
G92 E0
G1 X127.605 Y94.842 F7800.000
G1 E2.00000 F2400.00000
G1 F1800
G1 X127.605 Y91.132 E2.23427
G1 X129.276 Y91.132 E2.33973
G1 X128.642 Y93.415 E2.48935
G1 X128.040 Y94.925 E2.59200
G1 X127.679 Y94.856 E2.61522
G1 E0.61522 F2400.00000
G92 E0
G1 X71.065 Y86.952 F7800.000
G1 E2.00000 F2400.00000
G1 F1800
G1 X72.395 Y86.952 E2.08396
G1 X72.395 Y94.841 E2.58216
G1 X71.960 Y94.925 E2.61011
G1 X71.358 Y93.415 E2.71276
G1 X70.483 Y90.262 E2.91935
G1 X69.954 Y87.033 E3.12596
G1 X69.901 Y86.052 E3.18804
G1 X71.065 Y86.052 E3.26155
G1 X71.065 Y86.877 E3.31364
G1 X71.958 Y86.059 F7800.000
G1 F1800
G1 X73.287 Y86.059 E3.39761
G1 X73.287 Y97.859 E4.14273
G1 X126.713 Y97.859 E7.51631
G1 X126.713 Y90.239 E7.99748
G1 X130.450 Y90.239 E8.23346
G1 X129.489 Y93.700 E8.46028
G1 X128.242 Y96.830 E8.67299
G1 X126.662 Y99.811 E8.88605
G1 X124.775 Y102.594 E9.09835
G1 X122.537 Y105.221 E9.31627
G1 X120.094 Y107.525 E9.52833
G1 X117.416 Y109.553 E9.74044
G1 X114.534 Y111.280 E9.95261
G1 X111.493 Y112.684 E10.16415
G1 X108.300 Y113.756 E10.37680
G1 X105.019 Y114.476 E10.58891
G1 X101.680 Y114.838 E10.80103
G1 X98.320 Y114.838 E11.01315
G1 X94.981 Y114.476 E11.22527
G1 X91.700 Y113.756 E11.43739
G1 X88.515 Y112.687 E11.64950
G1 X85.465 Y111.280 E11.86162
G1 X82.584 Y109.553 E12.07373
G1 X79.906 Y107.525 E12.28585
G1 X77.463 Y105.221 E12.49791
G1 X75.225 Y102.594 E12.71583
G1 X73.338 Y99.811 E12.92813
G1 X71.760 Y96.835 E13.14084
G1 X70.511 Y93.700 E13.35390
G1 X69.610 Y90.454 E13.56661
G1 X69.065 Y87.130 E13.77933
G1 X68.958 Y85.159 E13.90397
G1 X71.958 Y85.159 E14.09337
G1 X71.958 Y85.984 E14.14546
G1 X72.850 Y85.166 F7800.000
G1 F1800
G1 X74.180 Y85.166 E14.22942
G1 X74.180 Y96.966 E14.97454
G1 X125.820 Y96.966 E18.23538
G1 X125.820 Y85.166 E18.98050
G1 X127.150 Y85.166 E19.06447
G1 X127.150 Y84.266 E19.12129
G1 X131.984 Y84.266 E19.42657
G1 X131.824 Y87.227 E19.61378
G1 X131.263 Y90.647 E19.83260
G1 X130.336 Y93.986 E20.05143
G1 X129.054 Y97.205 E20.27025
G1 X127.428 Y100.272 E20.48943
G1 X125.487 Y103.135 E20.70788
G1 X123.185 Y105.837 E20.93197
G1 X120.672 Y108.207 E21.15016
G1 X117.917 Y110.293 E21.36837
G1 X114.953 Y112.071 E21.58660
G1 X112.099 Y113.391 E21.78512
G1 X111.817 Y113.516 E21.80461
G1 X108.539 Y114.618 E22.02301
G1 X105.163 Y115.358 E22.24122
G1 X101.728 Y115.731 E22.45943
G1 X98.272 Y115.731 E22.67764
G1 X94.837 Y115.358 E22.89586
G1 X91.461 Y114.618 E23.11407
G1 X88.185 Y113.517 E23.33228
G1 X85.047 Y112.070 E23.55049
G1 X82.083 Y110.293 E23.76870
G1 X79.328 Y108.207 E23.98691
G1 X76.815 Y105.837 E24.20510
G1 X74.513 Y103.135 E24.42919
G1 X72.572 Y100.272 E24.64765
G1 X70.949 Y97.210 E24.86647
G1 X69.664 Y93.986 E25.08565
G1 X68.737 Y90.647 E25.30447
G1 X68.176 Y87.227 E25.52330
G1 X68.016 Y84.266 E25.71050
G1 X72.850 Y84.266 E26.01578
G1 X72.850 Y85.091 E26.06787
G1 X73.073 Y85.614 F7800.000
G1 E24.06787 F2400.00000
G92 E0
G1 X71.212 Y87.398 F7800.000
G1 E2.00000 F2400.00000
G1 F1800
G1 X71.243 Y87.778 E2.03378
G1 F1800
G1 X71.305 Y88.536 E2.09639
G1 F1800
G1 X71.366 Y89.295 E2.15405
G1 F1800
G1 X71.428 Y90.054 E2.20675
G1 F1800
G1 X71.477 Y90.409 E2.22914
G1 F1800
G1 X71.525 Y90.763 E2.24908
G1 F1800
G1 X71.573 Y91.118 E2.26657
G1 F1800
G1 X71.621 Y91.472 E2.28162
G1 F1800
G1 X71.670 Y91.827 E2.29422
G1 F1800
G1 X71.718 Y92.181 E2.30439
G1 F1800
G1 X71.766 Y92.536 E2.31210
G1 F1800
G1 X71.815 Y92.890 E2.31738
G1 F1800
G1 X71.863 Y93.245 E2.32020
G1 F1800
G1 X71.900 Y93.436 E2.32073
G1 X72.261 Y95.321 F7800.000
G1 F1800
G1 X72.412 Y96.108 E2.36738
G1 F1800
G1 X72.563 Y96.895 E2.40898
G1 F1800
G1 X72.714 Y97.682 E2.44552
G1 E0.44552 F2400.00000
G92 E0
G1 X75.730 Y99.297 F7800.000
G1 E2.00000 F2400.00000
G1 F1800
G1 X75.035 Y99.992 E2.06323
G1 X75.555 Y100.759 E2.12291
G1 X77.017 Y99.297 E2.25600
G1 X78.304 Y99.297 E2.33888
G1 X76.076 Y101.526 E2.54181
G1 X76.300 Y101.858 E2.56761
G1 X76.637 Y102.252 E2.60099
G1 X79.592 Y99.297 E2.87006
G1 X80.879 Y99.297 E2.95294
G1 X77.229 Y102.947 E3.28530
G1 X77.821 Y103.643 E3.34410
G1 X82.166 Y99.297 E3.73976
G1 X83.453 Y99.297 E3.82264
G1 X78.413 Y104.338 E4.28159
G1 X79.075 Y104.962 E4.34022
G1 X84.741 Y99.297 E4.85605
G1 X86.028 Y99.297 E4.93893
G1 X79.738 Y105.587 E5.51165
G1 X80.400 Y106.212 E5.57029
G1 X87.315 Y99.297 E6.19990
G1 X88.602 Y99.297 E6.28278
G1 X81.100 Y106.800 E6.96591
G1 X81.833 Y107.354 E7.02507
G1 X89.890 Y99.297 E7.75871
G1 X91.177 Y99.297 E7.84159
G1 X82.565 Y107.909 E8.62574
G1 X83.304 Y108.458 E8.68498
G1 X92.464 Y99.297 E9.51909
G1 X93.751 Y99.297 E9.60197
G1 X84.108 Y108.940 E10.48002
G1 X84.913 Y109.423 E10.54043
G1 X95.039 Y99.297 E11.46241
G1 X96.326 Y99.297 E11.54529
G1 X85.718 Y109.905 E12.51121
G1 X85.953 Y110.046 E12.52885
G1 X86.577 Y110.334 E12.57307
G1 X97.613 Y99.297 E13.57800
G1 X98.900 Y99.297 E13.66088
G1 X87.458 Y110.740 E14.70280
G1 X88.339 Y111.146 E14.76527
G1 X100.188 Y99.297 E15.84418
G1 X101.475 Y99.297 E15.92706
G1 X89.256 Y111.516 E17.03962
G1 X90.220 Y111.840 E17.10507
G1 X102.762 Y99.297 E18.24710
G1 X104.049 Y99.297 E18.32998
G1 X91.184 Y112.163 E19.50149
G1 X91.829 Y112.380 E19.54535
G1 X92.178 Y112.456 E19.56830
G1 X105.337 Y99.297 E20.76651
G1 X106.624 Y99.297 E20.84939
G1 X93.233 Y112.688 E22.06869
G1 X94.289 Y112.920 E22.13828
G1 X107.911 Y99.297 E23.37868
G1 X109.199 Y99.297 E23.46156
G1 X95.387 Y113.109 E24.71920
G1 X96.548 Y113.235 E24.79441
G1 X110.486 Y99.297 E26.06351
G1 X111.773 Y99.297 E26.14640
G1 X97.709 Y113.361 E27.42697
G1 X98.070 Y113.400 E27.45031
G1 X98.957 Y113.400 E27.50747
G1 X113.060 Y99.297 E28.79160
G1 X114.348 Y99.297 E28.87448
G1 X100.245 Y113.400 E30.15862
G1 X101.236 Y113.400 E30.22243
G1 X101.568 Y113.364 E30.24394
G1 X115.635 Y99.297 E31.52479
G1 X116.922 Y99.297 E31.60767
G1 X103.012 Y113.208 E32.87427
G1 X104.466 Y113.041 E32.96851
G1 X118.209 Y99.297 E34.21991
G1 X119.497 Y99.297 E34.30280
G1 X106.115 Y112.679 E35.52125
G1 X107.476 Y112.380 E35.61097
G1 X107.815 Y112.266 E35.63397
G1 X120.784 Y99.297 E36.81487
G1 X122.071 Y99.297 E36.89775
G1 X109.753 Y111.615 E38.01936
G1 X110.490 Y111.368 E38.06944
G1 X111.972 Y110.684 E38.17450
G1 X123.358 Y99.297 E39.21130
G1 X124.646 Y99.297 E39.29418
G1 X114.711 Y109.232 E40.19876
G1 E38.19876 F2400.00000
G92 E0
G1 X120.892 Y104.338 F7800.000
G1 E2.00000 F2400.00000
G1 F1800
G1 X121.586 Y103.644 E2.06322
G1 E0.06322 F2400.00000
G92 E0
G1 X127.286 Y97.680 F7800.000
G1 E2.00000 F2400.00000
G1 F1800
G1 X127.437 Y96.894 E2.03913
G1 F1800
G1 X127.588 Y96.108 E2.08328
G1 F1800
G1 X127.739 Y95.322 E2.13244
G1 X128.100 Y93.436 F7800.000
G1 F1800
G1 X128.137 Y93.245 E2.13331
G1 F1800
G1 X128.194 Y92.828 E2.13802
G1 F1800
G1 X128.251 Y92.412 E2.14554
G1 F1800
G1 X128.307 Y91.995 E2.15589
G1 F1800
G1 X128.364 Y91.578 E2.16905
G1 E0.16905 F2400.00000
G92 E0
G1 X130.871 Y89.793 F7800.000
G1 E2.00000 F2400.00000
G1 F1800
G1 X130.918 Y89.205 E2.00465
G1 F1800
G1 X130.966 Y88.617 E2.01317
G1 F1800
G1 X131.014 Y88.029 E2.02555
G1 F1800
G1 X131.062 Y87.441 E2.04179
G1 F1800
G1 X131.110 Y86.253 E2.08230
G1 F1800
G1 X131.134 Y85.360 E2.11888
G1 X131.121 Y85.276 E2.12236
G1 F1800
G1 X131.096 Y85.108 E2.13016
G1 X130.893 Y85.060 E2.13972
G1 F1800
G1 X130.791 Y85.036 E2.14405
G1 X127.596 Y85.036 E2.27689
M104 S200 ; set temperature
G1 Z0.900 F7800.000
G1 X127.030 Y86.031 F7800.000
G1 F900
G1 X130.120 Y86.031 E2.35805
G1 X130.120 Y89.121 E2.43921
G1 X127.030 Y89.121 E2.52037
G1 X127.030 Y86.106 E2.59957
G1 X126.901 Y85.548 F7800.000
G1 X126.563 Y97.710 F7800.000
G1 F3600
G1 X126.563 Y90.090 E2.81123
G1 X130.601 Y90.090 E2.92339
G1 X130.537 Y90.484 E2.93449
G1 X129.632 Y93.745 E3.02848
G1 X128.380 Y96.888 E3.12247
G1 X126.788 Y99.891 E3.21689
G1 X124.897 Y102.681 E3.31050
G1 X123.138 Y104.768 E3.38632
G1 X122.557 Y105.416 E3.41051
G1 X120.753 Y107.125 E3.47953
G1 X120.105 Y107.711 E3.50379
G1 X118.127 Y109.215 E3.57281
G1 X117.424 Y109.728 E3.59699
G1 X114.530 Y111.451 E3.69055
G1 X111.486 Y112.847 E3.78358
G1 X108.296 Y113.912 E3.87699
G1 X105.016 Y114.628 E3.97024
G1 X101.679 Y114.988 E4.06350
G1 X98.321 Y114.988 E4.15675
G1 X94.984 Y114.628 E4.25000
G1 X91.704 Y113.912 E4.34325
G1 X88.520 Y112.849 E4.43650
G1 X85.468 Y111.450 E4.52975
G1 X82.576 Y109.728 E4.62325
G1 X81.873 Y109.215 E4.64743
G1 X79.895 Y107.711 E4.71645
G1 X79.247 Y107.125 E4.74071
G1 X77.443 Y105.416 E4.80973
G1 X76.862 Y104.768 E4.83392
G1 X75.103 Y102.681 E4.90974
G1 X73.212 Y99.891 E5.00336
G1 X71.626 Y96.902 E5.09735
G1 X70.368 Y93.744 E5.19176
G1 X69.463 Y90.484 E5.28575
G1 X68.919 Y87.160 E5.37931
G1 X68.801 Y85.010 E5.43914
G1 X72.107 Y85.010 E5.53096
G1 X72.107 Y85.910 E5.55596
G1 X73.437 Y85.910 E5.59290
G1 X73.437 Y97.710 E5.92068
G1 X126.488 Y97.710 E7.39434
G1 X126.073 Y97.219 F7800.000
G1 F3600
G1 X126.073 Y85.419 E7.72212
G1 X126.552 Y85.419 E7.73545
G1 X126.552 Y89.599 E7.85156
G1 X130.598 Y89.599 E7.96393
G1 X130.598 Y85.554 E8.07629
G1 X127.402 Y85.554 E8.16505
G1 X127.402 Y84.519 E8.19380
G1 X131.718 Y84.519 E8.31367
G1 X131.572 Y87.198 E8.38820
G1 X131.017 Y90.590 E8.48367
G1 X130.098 Y93.901 E8.57913
G1 X128.826 Y97.094 E8.67460
G1 X127.209 Y100.145 E8.77050
G1 X125.289 Y102.977 E8.86557
G1 X123.509 Y105.090 E8.94230
G1 X122.909 Y105.759 E8.96726
G1 X121.086 Y107.486 E9.03700
G1 X120.419 Y108.089 E9.06199
G1 X118.420 Y109.608 E9.13173
G1 X117.695 Y110.138 E9.15668
G1 X114.759 Y111.886 E9.25159
G1 X111.664 Y113.305 E9.34616
G1 X108.427 Y114.386 E9.44098
G1 X105.095 Y115.113 E9.53570
G1 X101.705 Y115.479 E9.63042
G1 X98.295 Y115.479 E9.72514
G1 X94.905 Y115.113 E9.81985
G1 X91.573 Y114.386 E9.91457
G1 X88.339 Y113.306 E10.00929
G1 X85.240 Y111.885 E10.10400
G1 X82.305 Y110.138 E10.19887
G1 X81.580 Y109.608 E10.22382
G1 X79.581 Y108.089 E10.29356
G1 X78.914 Y107.486 E10.31855
G1 X77.091 Y105.759 E10.38829
G1 X76.491 Y105.090 E10.41325
G1 X74.711 Y102.977 E10.48998
G1 X72.791 Y100.144 E10.58506
G1 X71.180 Y97.108 E10.68052
G1 X69.902 Y93.901 E10.77642
G1 X68.983 Y90.590 E10.87189
G1 X68.430 Y87.214 E10.96692
G1 X68.283 Y84.519 E11.04188
G1 X72.598 Y84.519 E11.16175
G1 X72.598 Y85.419 E11.18674
G1 X73.927 Y85.419 E11.22368
G1 X73.927 Y97.219 E11.55146
G1 X125.998 Y97.219 E12.99785
G1 X125.595 Y96.741 F7800.000
G1 F1800
G1 X125.595 Y84.941 E13.30779
G1 X126.925 Y84.941 E13.34272
G1 X126.925 Y84.041 E13.36636
G1 X132.222 Y84.041 E13.50549
G1 X132.048 Y87.250 E13.58988
G1 X131.484 Y90.693 E13.68151
G1 X130.551 Y94.054 E13.77314
G1 X129.260 Y97.295 E13.86477
G1 X127.619 Y100.391 E13.95682
G1 X125.670 Y103.266 E14.04805
G1 X123.869 Y105.403 E14.12145
G1 X123.252 Y106.092 E14.14575
G1 X121.411 Y107.836 E14.21236
G1 X120.724 Y108.457 E14.23667
G1 X118.705 Y109.991 E14.30328
G1 X117.958 Y110.537 E14.32757
G1 X114.982 Y112.309 E14.41855
G1 X111.838 Y113.751 E14.50941
G1 X108.553 Y114.847 E14.60036
G1 X105.172 Y115.585 E14.69127
G1 X101.731 Y115.957 E14.78218
G1 X98.269 Y115.957 E14.87309
G1 X94.828 Y115.585 E14.96401
G1 X91.447 Y114.847 E15.05492
G1 X88.164 Y113.751 E15.14583
G1 X85.017 Y112.309 E15.23674
G1 X82.042 Y110.537 E15.32770
G1 X81.295 Y109.991 E15.35200
G1 X79.276 Y108.457 E15.41860
G1 X78.589 Y107.836 E15.44292
G1 X76.748 Y106.092 E15.50952
G1 X76.131 Y105.403 E15.53382
G1 X74.330 Y103.266 E15.60723
G1 X72.381 Y100.391 E15.69846
G1 X70.746 Y97.309 E15.79009
G1 X69.449 Y94.054 E15.88213
G1 X68.516 Y90.693 E15.97376
G1 X67.954 Y87.265 E16.06498
G1 X67.778 Y84.041 E16.14979
G1 X73.075 Y84.041 E16.28891
G1 X73.075 Y84.941 E16.31255
G1 X74.405 Y84.941 E16.34748
G1 X74.405 Y96.741 E16.65742
G1 X125.520 Y96.741 E18.00001
G1 X126.094 Y96.779 F7800.000
G1 X130.191 Y90.772 F7800.000
G1 F1200
G1 X129.809 Y90.390 E18.01502
G1 X129.115 Y90.390 E18.03434
G1 X130.040 Y91.316 E18.07074
G1 X129.889 Y91.859 E18.08643
G1 X128.420 Y90.390 E18.14421
G1 X127.725 Y90.390 E18.16352
G1 X129.738 Y92.403 E18.24268
G1 X129.588 Y92.947 E18.25837
G1 X127.030 Y90.390 E18.35892
G1 X126.863 Y90.390 E18.36356
G1 X126.863 Y90.918 E18.37823
G1 X129.437 Y93.491 E18.47940
G1 X129.357 Y93.779 E18.48770
G1 X129.264 Y94.013 E18.49471
G1 X126.863 Y91.612 E18.58908
G1 X126.863 Y92.307 E18.60839
G1 X129.066 Y94.510 E18.69498
G1 X128.868 Y95.006 E18.70985
G1 X126.863 Y93.002 E18.78866
G1 X126.863 Y93.697 E18.80797
G1 X128.670 Y95.503 E18.87900
G1 X128.472 Y96.000 E18.89387
G1 X126.863 Y94.391 E18.95712
G1 X126.863 Y95.086 E18.97644
