; generated by Slic3r 1.3.0 on 2018-11-17 at 11:29:54

; external perimeters extrusion width = 0.55mm (4.37mm^3/s)
; perimeters extrusion width = 0.70mm (11.44mm^3/s)
; infill extrusion width = 0.63mm (13.45mm^3/s)
; solid infill extrusion width = 0.70mm (3.81mm^3/s)
; top infill extrusion width = 0.70mm (2.86mm^3/s)

M107
M104 S200 ; set temperature
G28 ; home all axes
G1 Z5 F5000 ; lift nozzle

; Filament gcode

M109 S200 ; set temperature and wait for it to be reached
G21 ; set units to millimeters
G90 ; use absolute coordinates
M82 ; use absolute distances for extrusion
G92 E0
G1 Z0.350 F7800.000
G1 E-2.00000 F2400.00000
G92 E0
G1 X58.285 Y75.398 F7800.000
G1 E2.00000 F2400.00000
G1 F1800
G1 X60.395 Y74.498 E2.07096
G1 X61.900 Y74.325 E2.11784
G1 X138.100 Y74.325 E4.47557
G1 X140.359 Y74.722 E4.54653
G1 X142.347 Y75.865 E4.61749
G1 X143.826 Y77.618 E4.68845
G1 X144.619 Y79.770 E4.75942
G1 X144.716 Y81.286 E4.80640
G1 X144.521 Y85.140 E4.92582
G1 X144.453 Y85.808 E4.94658
G1 X143.869 Y89.623 E5.06600
G1 X143.733 Y90.280 E5.08676
G1 X142.766 Y94.016 E5.20618
G1 X142.565 Y94.657 E5.22694
G1 X141.225 Y98.276 E5.34636
G1 X140.960 Y98.893 E5.36712
G1 X139.258 Y102.362 E5.48670
G1 X138.975 Y102.879 E5.50493
G1 X136.894 Y106.219 E5.62669
G1 X136.604 Y106.646 E5.64269
G1 X134.148 Y109.821 E5.76687
G1 X133.833 Y110.199 E5.78209
G1 X130.800 Y113.380 E5.91809
G1 X127.812 Y115.960 E6.04023
G1 X127.403 Y116.293 E6.05654
G1 X127.030 Y116.573 E6.07100
G1 X123.724 Y118.861 E6.19537
G1 X123.300 Y119.118 E6.21073
G1 X119.806 Y121.047 E6.33420
G1 X119.332 Y121.273 E6.35046
G1 X115.689 Y122.829 E6.47303
G1 X115.167 Y123.017 E6.49019
G1 X111.414 Y124.189 E6.61186
G1 X110.848 Y124.332 E6.62992
G1 X107.024 Y125.115 E6.75069
G1 X106.418 Y125.205 E6.76965
G1 X102.564 Y125.595 E6.88951
G1 X101.922 Y125.626 E6.90938
G1 X98.078 Y125.626 E7.02834
G1 X97.436 Y125.595 E7.04820
G1 X93.582 Y125.205 E7.16807
G1 X92.602 Y125.041 E7.19882
G1 X89.152 Y124.332 E7.30779
G1 X88.586 Y124.189 E7.32585
G1 X84.833 Y123.017 E7.44752
G1 X84.311 Y122.829 E7.46468
G1 X80.668 Y121.273 E7.58725
G1 X80.194 Y121.047 E7.60351
G1 X76.700 Y119.118 E7.72698
G1 X76.276 Y118.861 E7.74234
G1 X72.970 Y116.573 E7.86671
G1 X72.597 Y116.293 E7.88117
G1 X72.188 Y115.960 E7.89748
G1 X69.225 Y113.403 E8.01858
G1 X66.169 Y110.201 E8.15551
G1 X65.852 Y109.821 E8.17084
G1 X63.394 Y106.643 E8.29514
G1 X63.106 Y106.219 E8.31102
G1 X61.027 Y102.882 E8.43266
G1 X60.740 Y102.358 E8.45117
G1 X59.039 Y98.891 E8.57064
G1 X58.775 Y98.276 E8.59135
G1 X57.435 Y94.656 E8.71078
G1 X57.234 Y94.016 E8.73153
G1 X56.266 Y90.277 E8.85105
G1 X56.131 Y89.623 E8.87171
G1 X55.547 Y85.805 E8.99121
G1 X55.479 Y85.140 E9.01189
G1 X55.283 Y81.282 E9.13142
G1 X55.567 Y79.006 E9.20238
G1 X56.609 Y76.963 E9.27334
G1 X58.231 Y75.449 E9.34198
G1 E7.34198 F2400.00000
G92 E0
G1 X126.924 Y88.900 F7800.000
G1 E2.00000 F2400.00000
G1 F1800
G1 X126.924 Y83.450 E2.16863
G1 X128.262 Y83.450 E2.21005
G1 X128.262 Y82.550 E2.23790
G1 X128.880 Y82.550 E2.25702
G1 X128.880 Y84.455 E2.31596
G1 X135.890 Y84.455 E2.53285
G1 X135.890 Y82.550 E2.59179
G1 X136.417 Y82.550 E2.60810
G1 X136.311 Y84.642 E2.67294
G1 X135.751 Y88.297 E2.78733
G1 X134.824 Y91.876 E2.90173
G1 X133.540 Y95.343 E3.01613
G1 X131.912 Y98.663 E3.13052
G1 X129.957 Y101.799 E3.24488
G1 X127.694 Y104.723 E3.35927
G1 X125.148 Y107.402 E3.47363
G1 X122.267 Y109.867 E3.59096
G1 X119.240 Y111.964 E3.70489
G1 X116.015 Y113.746 E3.81889
G1 X112.642 Y115.189 E3.93241
G1 X109.114 Y116.292 E4.04677
G1 X105.506 Y117.030 E4.16073
G1 X101.842 Y117.402 E4.27470
G1 X98.158 Y117.402 E4.38866
G1 X94.494 Y117.030 E4.50262
G1 X90.886 Y116.292 E4.61658
G1 X87.370 Y115.193 E4.73054
G1 X83.984 Y113.746 E4.84450
G1 X80.760 Y111.964 E4.95846
G1 X77.733 Y109.867 E5.07239
G1 X74.852 Y107.402 E5.18972
G1 X72.306 Y104.723 E5.30408
G1 X70.043 Y101.799 E5.41847
G1 X68.090 Y98.666 E5.53269
G1 X66.460 Y95.343 E5.64722
G1 X65.176 Y91.876 E5.76162
G1 X64.249 Y88.297 E5.87602
G1 X63.690 Y84.645 E5.99032
G1 X63.583 Y82.550 E6.05524
G1 X64.110 Y82.550 E6.07155
G1 X64.110 Y84.455 E6.13050
G1 X71.120 Y84.455 E6.34738
G1 X71.120 Y82.550 E6.40633
G1 X71.738 Y82.550 E6.42545
G1 X71.738 Y83.450 E6.45329
G1 X73.076 Y83.450 E6.49471
G1 X73.076 Y88.900 E6.66334
G1 X126.849 Y88.900 E8.32713
G1 X126.299 Y88.275 F7800.000
G1 F1800
G1 X126.299 Y82.825 E8.49576
G1 X127.637 Y82.825 E8.53718
G1 X127.637 Y81.925 E8.56502
G1 X129.505 Y81.925 E8.62281
G1 X129.505 Y83.830 E8.68176
G1 X135.265 Y83.830 E8.85997
G1 X135.265 Y81.925 E8.91892
G1 X137.074 Y81.925 E8.97490
G1 X136.933 Y84.706 E9.06106
G1 X136.364 Y88.423 E9.17742
G1 X135.421 Y92.064 E9.29377
G1 X134.115 Y95.590 E9.41013
G1 X132.459 Y98.966 E9.52649
G1 X130.471 Y102.157 E9.64281
G1 X128.169 Y105.130 E9.75916
G1 X125.579 Y107.855 E9.87549
G1 X122.649 Y110.363 E9.99481
G1 X119.570 Y112.496 E10.11070
G1 X116.290 Y114.308 E10.22664
G1 X112.854 Y115.778 E10.34229
G1 X109.270 Y116.898 E10.45844
G1 X105.600 Y117.649 E10.57436
G1 X101.873 Y118.027 E10.69027
G1 X98.127 Y118.027 E10.80619
G1 X94.400 Y117.649 E10.92210
G1 X90.730 Y116.898 E11.03802
G1 X87.154 Y115.780 E11.15393
G1 X83.709 Y114.308 E11.26985
G1 X80.430 Y112.496 E11.38576
G1 X77.351 Y110.363 E11.50166
G1 X74.421 Y107.855 E11.62097
G1 X71.831 Y105.130 E11.73730
G1 X69.529 Y102.157 E11.85365
G1 X67.543 Y98.970 E11.96984
G1 X65.885 Y95.590 E12.08633
G1 X64.579 Y92.064 E12.20269
G1 X63.636 Y88.423 E12.31905
G1 X63.067 Y84.709 E12.43531
G1 X62.926 Y81.925 E12.52156
G1 X64.735 Y81.925 E12.57754
G1 X64.735 Y83.830 E12.63649
G1 X70.495 Y83.830 E12.81470
G1 X70.495 Y81.925 E12.87365
G1 X72.363 Y81.925 E12.93144
G1 X72.363 Y82.825 E12.95928
G1 X73.701 Y82.825 E13.00070
G1 X73.701 Y88.275 E13.16933
G1 X126.224 Y88.275 E14.79445
G1 X125.674 Y87.650 F7800.000
G1 F1800
G1 X125.674 Y82.200 E14.96308
G1 X127.012 Y82.200 E15.00450
G1 X127.012 Y81.300 E15.03234
G1 X130.130 Y81.300 E15.12880
G1 X130.130 Y83.205 E15.18775
G1 X134.640 Y83.205 E15.32729
G1 X134.640 Y81.300 E15.38624
G1 X137.732 Y81.300 E15.48190
G1 X137.556 Y84.769 E15.58937
G1 X136.977 Y88.549 E15.70769
G1 X136.018 Y92.251 E15.82601
G1 X134.690 Y95.837 E15.94433
G1 X133.006 Y99.270 E16.06265
G1 X130.984 Y102.514 E16.18093
G1 X128.644 Y105.538 E16.29924
G1 X126.009 Y108.309 E16.41755
G1 X123.031 Y110.858 E16.53885
G1 X119.900 Y113.027 E16.65671
G1 X116.565 Y114.870 E16.77458
G1 X113.065 Y116.366 E16.89236
G1 X109.427 Y117.503 E17.01031
G1 X105.695 Y118.267 E17.12818
G1 X101.905 Y118.651 E17.24605
G1 X98.095 Y118.651 E17.36392
G1 X94.305 Y118.267 E17.48179
G1 X90.573 Y117.503 E17.59966
G1 X86.937 Y116.367 E17.71752
G1 X83.434 Y114.870 E17.83539
G1 X80.100 Y113.027 E17.95326
G1 X76.969 Y110.858 E18.07112
G1 X73.991 Y108.309 E18.19242
G1 X71.356 Y105.538 E18.31072
G1 X69.016 Y102.514 E18.42904
G1 X66.996 Y99.274 E18.54718
G1 X65.310 Y95.837 E18.66564
G1 X63.982 Y92.251 E18.78395
G1 X63.023 Y88.549 E18.90227
G1 X62.445 Y84.772 E19.02050
G1 X62.268 Y81.300 E19.12807
G1 X65.360 Y81.300 E19.22373
G1 X65.360 Y83.205 E19.28267
G1 X69.870 Y83.205 E19.42222
G1 X69.870 Y81.300 E19.48116
G1 X72.988 Y81.300 E19.57762
G1 X72.988 Y82.200 E19.60547
G1 X74.326 Y82.200 E19.64689
G1 X74.326 Y87.650 E19.81552
G1 X125.599 Y87.650 E21.40196
G1 X126.173 Y87.668 F7800.000
G1 E19.40196 F2400.00000
G92 E0
G1 X128.389 Y83.832 F7800.000
G1 E2.00000 F2400.00000
G1 F1800
G1 X127.305 Y84.915 E2.04742
G1 X127.305 Y85.799 E2.07477
G1 X128.498 Y84.606 E2.12698
G1 X128.498 Y84.837 E2.13412
G1 X129.152 Y84.837 E2.15433
G1 X127.305 Y86.683 E2.23512
G1 X127.305 Y87.567 E2.26247
G1 X130.035 Y84.837 E2.38194
G1 X130.919 Y84.837 E2.40929
G1 X127.305 Y88.450 E2.56744
G1 X127.305 Y89.334 E2.59479
G1 X131.803 Y84.837 E2.79162
G1 X132.687 Y84.837 E2.81897
G1 X100.504 Y117.020 E4.22741
G1 X101.388 Y117.020 E4.25476
G1 X133.571 Y84.837 E5.66320
G1 X134.455 Y84.837 E5.69055
G1 X102.351 Y116.940 E7.09551
G1 X103.334 Y116.841 E7.12610
G1 X135.338 Y84.837 E8.52670
G1 X135.855 Y84.837 E8.54268
G1 X135.788 Y85.271 E8.55626
G1 X104.318 Y116.741 E9.93351
G1 X105.169 Y116.655 E9.95998
G1 X105.318 Y116.624 E9.96471
G1 X135.628 Y86.314 E11.29117
G1 X135.469 Y87.358 E11.32385
G1 X106.430 Y116.397 E12.59467
G1 X107.541 Y116.169 E12.62977
G1 X135.241 Y88.469 E13.84200
G1 X134.932 Y89.662 E13.88013
G1 X108.653 Y115.942 E15.03021
G1 X109.928 Y115.550 E15.07151
G1 X134.623 Y90.855 E16.15224
G1 X134.470 Y91.446 E16.17114
G1 X134.208 Y92.154 E16.19450
G1 X111.214 Y115.148 E17.20079
G1 X112.187 Y114.844 E17.23235
G1 X112.557 Y114.689 E17.24473
G1 X133.688 Y93.557 E18.16953
G1 X133.208 Y94.854 E18.21230
G1 X133.143 Y94.986 E18.21688
G1 X114.105 Y114.025 E19.05006
G1 X115.497 Y113.427 E19.09695
G1 X115.696 Y113.317 E19.10397
G1 X132.292 Y96.721 E19.83027
G1 X131.608 Y98.116 E19.87835
G1 X131.321 Y98.576 E19.89512
G1 X117.672 Y112.226 E20.49247
G1 X118.667 Y111.675 E20.52767
G1 X120.094 Y110.687 E20.58139
G1 X129.859 Y100.922 E21.00873
G1 X129.687 Y101.199 E21.01883
G1 X127.462 Y104.072 E21.13127
G1 X124.963 Y106.702 E21.24354
G1 X124.473 Y107.192 E21.26497
G1 E19.26497 F2400.00000
G92 E0
G1 X99.620 Y117.020 F7800.000
G1 E2.00000 F2400.00000
G1 F1800
G1 X127.358 Y89.282 E3.21391
G1 X126.474 Y89.282 E3.24126
G1 X98.736 Y117.020 E4.45517
G1 X97.947 Y117.020 E4.47959
G1 X97.861 Y117.011 E4.48226
G1 X125.590 Y89.282 E5.69579
G1 X124.707 Y89.282 E5.72314
G1 X97.058 Y116.930 E6.93311
G1 X96.256 Y116.848 E6.95807
G1 X123.823 Y89.282 E8.16448
G1 X122.939 Y89.282 E8.19183
G1 X95.453 Y116.767 E9.39469
G1 X94.651 Y116.686 E9.41965
G1 X122.055 Y89.282 E10.61894
G1 X121.171 Y89.282 E10.64629
G1 X93.891 Y116.562 E11.84016
G1 X93.157 Y116.412 E11.86333
G1 X120.287 Y89.282 E13.05063
G1 X119.404 Y89.282 E13.07798
G1 X92.424 Y116.261 E14.25870
G1 X91.690 Y116.111 E14.28188
G1 X118.520 Y89.282 E15.45602
G1 X117.636 Y89.282 E15.48337
G1 X90.956 Y115.961 E16.65095
G1 X90.799 Y115.929 E16.65592
G1 X90.270 Y115.764 E16.67307
G1 X116.752 Y89.282 E17.83200
G1 X115.868 Y89.282 E17.85935
G1 X89.597 Y115.553 E19.00907
G1 X88.923 Y115.343 E19.03090
G1 X114.984 Y89.282 E20.17141
G1 X114.101 Y89.282 E20.19876
G1 X88.250 Y115.132 E21.33006
G1 X87.577 Y114.922 E21.35190
G1 X113.217 Y89.282 E22.47399
G1 X112.333 Y89.282 E22.50134
G1 X86.939 Y114.676 E23.61267
G1 X86.319 Y114.411 E23.63350
G1 X111.449 Y89.282 E24.73325
G1 X110.565 Y89.282 E24.76060
G1 X85.700 Y114.147 E25.84877
G1 X85.081 Y113.882 E25.86960
G1 X109.681 Y89.282 E26.94619
G1 X108.797 Y89.282 E26.97354
G1 X84.462 Y113.617 E28.03854
G1 X84.015 Y113.426 E28.05357
G1 X83.857 Y113.339 E28.05918
G1 X107.914 Y89.282 E29.11199
G1 X107.030 Y89.282 E29.13934
G1 X83.287 Y113.024 E30.17839
G1 X82.718 Y112.710 E30.19852
G1 X106.146 Y89.282 E31.22379
G1 X105.262 Y89.282 E31.25115
G1 X82.149 Y112.395 E32.26266
G1 X81.580 Y112.080 E32.28278
G1 X104.378 Y89.282 E33.28053
G1 X103.494 Y89.282 E33.30788
G1 X81.010 Y111.766 E34.29185
G1 X80.847 Y111.675 E34.29763
G1 X80.475 Y111.418 E34.31164
G1 X102.611 Y89.282 E35.28038
G1 X101.727 Y89.282 E35.30773
G1 X79.952 Y111.056 E36.26065
G1 X79.430 Y110.694 E36.28030
G1 X100.843 Y89.282 E37.21738
G1 X99.959 Y89.282 E37.24473
G1 X78.908 Y110.333 E38.16598
G1 X78.386 Y109.971 E38.18564
G1 X99.075 Y89.282 E39.09106
G1 X98.191 Y89.282 E39.11841
G1 X77.865 Y109.608 E40.00798
G1 X77.388 Y109.201 E40.02737
G1 X97.308 Y89.282 E40.89910
G1 X96.424 Y89.282 E40.92645
G1 X76.912 Y108.793 E41.78034
G1 X76.436 Y108.386 E41.79974
G1 X95.540 Y89.282 E42.63579
G1 X94.656 Y89.282 E42.66314
G1 X75.960 Y107.978 E43.48135
G1 X75.483 Y107.570 E43.50075
G1 X93.772 Y89.282 E44.30113
G1 X92.888 Y89.282 E44.32848
G1 X75.010 Y107.160 E45.11088
G1 X74.580 Y106.707 E45.13023
G1 X92.005 Y89.282 E45.89280
G1 X91.121 Y89.282 E45.92015
G1 X74.149 Y106.254 E46.66289
G1 X73.718 Y105.800 E46.68224
G1 X90.237 Y89.282 E47.40515
G1 X89.353 Y89.282 E47.43250
G1 X73.287 Y105.347 E48.13558
G1 X72.857 Y104.894 E48.15493
G1 X88.469 Y89.282 E48.83818
G1 X87.585 Y89.282 E48.86553
G1 X72.438 Y104.429 E49.52844
G1 X72.052 Y103.931 E49.54794
G1 X86.702 Y89.282 E50.18904
G1 X85.818 Y89.282 E50.21639
G1 X71.666 Y103.433 E50.83570
G1 X71.281 Y102.935 E50.85519
G1 X84.934 Y89.282 E51.45269
G1 X84.050 Y89.282 E51.48004
G1 X70.895 Y102.436 E52.05574
G1 X70.510 Y101.938 E52.07523
G1 X83.166 Y89.282 E52.62913
G1 X82.282 Y89.282 E52.65648
G1 X70.147 Y101.417 E53.18757
G1 X69.807 Y100.873 E53.20742
G1 X81.399 Y89.282 E53.71469
G1 X80.515 Y89.282 E53.74204
G1 X69.468 Y100.328 E54.22548
G1 X69.129 Y99.784 E54.24533
G1 X79.631 Y89.282 E54.70495
G1 X78.747 Y89.282 E54.73230
G1 X68.789 Y99.239 E55.16808
G1 X68.450 Y98.695 E55.18793
G1 X77.863 Y89.282 E55.59989
G1 X76.979 Y89.282 E55.62724
G1 X68.151 Y98.110 E56.01360
G1 X67.860 Y97.517 E56.03403
G1 X76.096 Y89.282 E56.39444
G1 X75.212 Y89.282 E56.42179
G1 X67.569 Y96.924 E56.75625
G1 X67.278 Y96.331 E56.77669
G1 X74.328 Y89.282 E57.08520
G1 X73.444 Y89.282 E57.11255
G1 X66.987 Y95.738 E57.39512
G1 X66.792 Y95.339 E57.40887
G1 X66.713 Y95.128 E57.41583
G1 X72.695 Y89.147 E57.67758
G1 X72.695 Y88.263 E57.70494
G1 X66.475 Y94.483 E57.97714
G1 X66.236 Y93.838 E57.99843
G1 X72.695 Y87.380 E58.28109
G1 X72.695 Y86.496 E58.30844
G1 X65.997 Y93.193 E58.60155
G1 X65.758 Y92.548 E58.62283
G1 X72.695 Y85.612 E58.92640
G1 X72.695 Y84.728 E58.95375
G1 X65.522 Y91.901 E59.26766
G1 X65.340 Y91.199 E59.29010
G1 X71.702 Y84.837 E59.56854
G1 X70.818 Y84.837 E59.59589
G1 X65.158 Y90.497 E59.84360
G1 X64.976 Y89.795 E59.86604
G1 X69.934 Y84.837 E60.08303
G1 X69.051 Y84.837 E60.11038
G1 X64.795 Y89.093 E60.29664
G1 X64.615 Y88.389 E60.31913
G1 X68.167 Y84.837 E60.47457
G1 X67.283 Y84.837 E60.50192
G1 X64.497 Y87.622 E60.62382
G1 X64.380 Y86.856 E60.64782
G1 X66.399 Y84.837 E60.73618
G1 X65.515 Y84.837 E60.76353
G1 X64.263 Y86.089 E60.81835
G1 X64.145 Y85.323 E60.84234
G1 X64.631 Y84.837 E60.86362
G1 E58.86362 F2400.00000
G92 E0
G1 X71.502 Y85.037 F7800.000
G1 E2.00000 F2400.00000
G1 F1800
G1 X72.695 Y83.844 E2.05221
G1 Z0.650 F7800.000
G1 E0.05221 F2400.00000
G92 E0
G1 X126.795 Y88.771 F7800.000
G1 E2.00000 F2400.00000
G1 F3600
G1 X126.795 Y83.321 E2.14702
G1 X128.134 Y83.321 E2.18313
G1 X128.134 Y82.421 E2.20741
G1 X129.009 Y82.421 E2.23102
G1 X129.009 Y84.326 E2.28241
G1 X135.761 Y84.326 E2.46457
G1 X135.761 Y82.421 E2.51596
G1 X136.552 Y82.421 E2.53730
G1 X136.439 Y84.655 E2.59765
G1 X135.877 Y88.323 E2.69774
G1 X134.947 Y91.915 E2.79783
G1 X133.659 Y95.394 E2.89792
G1 X132.025 Y98.725 E2.99801
G1 X130.064 Y101.871 E3.09800
G1 X127.793 Y104.805 E3.19808
G1 X125.236 Y107.496 E3.29822
G1 X122.879 Y109.533 E3.38228
G1 X122.220 Y110.064 E3.40510
G1 X119.903 Y111.677 E3.48126
G1 X119.194 Y112.143 E3.50415
G1 X116.726 Y113.513 E3.58031
G1 X115.975 Y113.909 E3.60320
G1 X112.597 Y115.342 E3.70218
G1 X109.083 Y116.432 E3.80145
G1 X105.486 Y117.164 E3.90045
G1 X101.835 Y117.531 E3.99945
G1 X98.165 Y117.531 E4.09845
G1 X94.514 Y117.164 E4.19745
G1 X90.917 Y116.432 E4.29646
G1 X87.412 Y115.345 E4.39546
G1 X84.022 Y113.907 E4.49479
G1 X83.274 Y113.513 E4.51759
G1 X80.806 Y112.143 E4.59375
G1 X80.097 Y111.677 E4.61664
G1 X77.780 Y110.064 E4.69280
G1 X77.121 Y109.533 E4.71562
G1 X74.764 Y107.496 E4.79968
G1 X72.207 Y104.805 E4.89982
G1 X69.936 Y101.871 E4.99990
G1 X67.982 Y98.736 E5.09957
G1 X66.341 Y95.394 E5.19999
G1 X65.053 Y91.915 E5.30007
G1 X64.123 Y88.323 E5.40016
G1 X63.562 Y84.664 E5.50003
G1 X63.448 Y82.421 E5.56060
G1 X64.239 Y82.421 E5.58193
G1 X64.239 Y84.326 E5.63332
G1 X70.991 Y84.326 E5.81548
G1 X70.991 Y82.421 E5.86687
G1 X71.866 Y82.421 E5.89048
G1 X71.866 Y83.321 E5.91475
G1 X73.205 Y83.321 E5.95086
G1 X73.205 Y88.771 E6.09789
G1 X126.720 Y88.771 E7.54154
G1 X126.159 Y88.136 F7800.000
G1 F3600
G1 X126.159 Y82.686 E7.68856
G1 X127.498 Y82.686 E7.72467
G1 X127.498 Y81.786 E7.74895
G1 X129.644 Y81.786 E7.80685
G1 X129.644 Y83.691 E7.85824
G1 X135.126 Y83.691 E8.00611
G1 X135.126 Y81.786 E8.05750
G1 X137.221 Y81.786 E8.11402
G1 X137.072 Y84.720 E8.19328
G1 X136.501 Y88.451 E8.29511
G1 X135.554 Y92.105 E8.39694
G1 X134.243 Y95.645 E8.49877
G1 X132.581 Y99.034 E8.60059
